icons/police-car-line.svg

<svg viewBox="0 0 24 24" fill="currentColor" xmlns="http://www.w3.org/2000/svg">
    <path d="M4 13V18H20V13H4ZM5.61803 11H18.382C18.5372 11 18.6903 10.9639 18.8292 10.8944C19.3232 10.6474 19.5234 10.0468 19.2764 9.55279L18 7H6L4.72361 9.55279C4.65418 9.69164 4.61803 9.84475 4.61803 10C4.61803 10.5523 5.06575 11 5.61803 11ZM22 13.5V21C22 21.5523 21.5523 22 21 22H20C19.4477 22 19 21.5523 19 21V20H5V21C5 21.5523 4.55228 22 4 22H3C2.44772 22 2 21.5523 2 21V13.5L0.757464 13.1894C0.312297 13.0781 0 12.6781 0 12.2192V11.5C0 11.2239 0.223858 11 0.5 11H2L4.44721 6.10557C4.786 5.428 5.47852 5 6.23607 5H8V3H11V5H13V3H16V5H17.7639C18.5215 5 19.214 5.428 19.5528 6.10557L22 11H23.5C23.7761 11 24 11.2239 24 11.5V12.2192C24 12.6781 23.6877 13.0781 23.2425 13.1894L22 13.5ZM5 14C7.31672 14 8.87868 14.7548 9.68588 16.2643L9.68582 16.2643C9.81602 16.5078 9.72418 16.8107 9.4807 16.9409C9.40818 16.9797 9.3272 17 9.24496 17H6C5.44772 17 5 16.5523 5 16V14ZM19 14V16C19 16.5523 18.5523 17 18 17H14.755C14.6728 17 14.5918 16.9797 14.5193 16.9409C14.2758 16.8107 14.184 16.5078 14.3142 16.2643L14.3141 16.2643C15.1213 14.7548 16.6833 14 19 14Z"/>
</svg>

<svg xmlns="http://www.w3.org/2000/svg" viewBox="0 0 24 24">
    <g>
        <path fill="none" d="M0 0h24v24H0z"/>
        <path d="M4 13v5h16v-5H4zm1.618-2h12.764a1 1 0 0 0 .894-1.447L18 7H6L4.724 9.553A1 1 0 0 0 5.618 11zM22 13.5V21a1 1 0 0 1-1 1h-1a1 1 0 0 1-1-1v-1H5v1a1 1 0 0 1-1 1H3a1 1 0 0 1-1-1v-7.5l-1.243-.31A1 1 0 0 1 0 12.22v-.72a.5.5 0 0 1 .5-.5H2l2.447-4.894A2 2 0 0 1 6.237 5H8V3h3v2h2V3h3v2h1.764a2 2 0 0 1 1.789 1.106L22 11h1.5a.5.5 0 0 1 .5.5v.72a1 1 0 0 1-.757.97L22 13.5zM5 14c2.317 0 3.879.755 4.686 2.264a.5.5 0 0 1-.441.736H6a1 1 0 0 1-1-1v-2zm14 0v2a1 1 0 0 1-1 1h-3.245a.5.5 0 0 1-.44-.736C15.12 14.754 16.682 14 19 14z"/>
    </g>
</svg>
